src/static/icons/conversations_icon.svg

<?xml version="1.0" encoding="UTF-8"?>
<svg width="23px" height="22px" viewBox="0 0 23 22" version="1.1" xmlns="http://www.w3.org/2000/svg" xmlns:xlink="http://www.w3.org/1999/xlink">
    <!-- Generator: Sketch 52.2 (67145) - http://www.bohemiancoding.com/sketch -->
    <title>conversations_icon</title>
    <desc>Created with Sketch.</desc>
    <g id="conversations_icon" stroke="none" stroke-width="1" fill="none" fill-rule="evenodd">
        <g id="conversations-icon" fill="#007AFF">
            <path d="M14.0873436,21.8272464 C11.6541688,21.8272464 9.33488139,20.6529574 7.88095096,18.6702263 L8.63148712,18.1066241 C9.92905585,19.8751204 11.9169498,20.8855551 14.0868768,20.8855551 L14.1013461,20.8855551 C15.1590046,20.8855551 16.1723218,20.6491906 17.1128258,20.1745782 C17.2864573,20.0874717 17.4964954,20.1209018 17.6383878,20.2541511 C18.3814559,20.9467651 20.2083207,20.8855551 21.4214074,20.7264093 C19.9007315,18.7832293 20.228391,17.0415712 20.2447273,16.9601149 C20.2517285,16.9257432 20.2624638,16.892784 20.2769331,16.8602956 C20.6830068,15.9572137 20.8874439,14.9924509 20.8851101,13.9919039 C20.8813761,12.0661452 20.1140369,10.2816402 18.7254517,8.96656827 L19.3644342,8.27960446 C20.9196497,9.75240966 21.814412,11.8340183 21.8186128,13.9904914 C21.8209466,15.1054539 21.5973727,16.1822779 21.1530254,17.191771 C21.1152185,17.4738075 20.9938632,19.0421944 22.662966,20.7184049 C22.7843213,20.8403539 22.8291295,21.0192753 22.7810541,21.1854838 C22.7325119,21.3507506 22.5980875,21.4764664 22.4305238,21.5127215 C22.051055,21.5941778 18.8463403,22.2307612 17.2617194,21.1468745 C16.2675391,21.6012405 15.2061465,21.8272464 14.1032131,21.8272464 L14.0873436,21.8272464 Z" id="Fill-1"></path>
            <path d="M6.12979327,15.5246478 C6.20027272,15.5246478 6.27168568,15.5406565 6.33749762,15.5736157 C7.33074447,16.0722413 8.4000718,16.3250854 9.51560751,16.3250854 C13.4685246,16.3250854 16.6844414,13.0630667 16.6844414,9.05381597 C16.6844414,5.04409439 13.4685246,1.78207571 9.51560751,1.78207571 C5.56269039,1.78207571 2.34677364,5.04409439 2.34677364,9.05381597 C2.34677364,10.1099228 2.56427976,11.1269494 2.99415775,12.0780576 C3.00862704,12.1100751 3.01936232,12.1435051 3.02683034,12.1783477 C3.04410014,12.2630999 3.3936969,14.1012814 1.77873725,16.1504016 C2.21748352,16.2083157 2.78832041,16.2629338 3.37596035,16.2629338 C4.54237195,16.2629338 5.38439138,16.0515241 5.81193561,15.6508344 C5.90061836,15.5679656 6.01450569,15.5246478 6.12979327,15.5246478 M9.51560751,17.2667767 C8.35526367,17.2667767 7.23832771,17.024762 6.19233795,16.5468537 C5.56502415,16.9837985 4.62031943,17.2046251 3.3764271,17.2046251 L3.37596035,17.2046251 C2.03545049,17.2046251 0.817696239,16.9494267 0.766820343,16.9385973 C0.598789859,16.9032838 0.463898721,16.7775681 0.415356581,16.6123012 C0.36634769,16.4460927 0.411622571,16.2671714 0.53297792,16.1447515 C2.29309723,14.3691925 2.16053985,12.7108742 2.11899898,12.4109455 C1.65038063,11.3534261 1.41327095,10.2238674 1.41327095,9.05381597 C1.41327095,4.52522248 5.04786366,0.840384404 9.51560751,0.840384404 C13.9833514,0.840384404 17.6179441,4.52522248 17.6179441,9.05381597 C17.6179441,13.5824095 13.9833514,17.2667767 9.51560751,17.2667767" id="Fill-4"></path>
        </g>
    </g>
</svg>

<svg width="23" height="22" viewBox="0 0 23 22" xmlns="http://www.w3.org/2000/svg"><title>conversations_icon</title><g fill="#007AFF" fill-rule="evenodd"><path d="M14.087 21.827a7.724 7.724 0 0 1-6.206-3.157l.75-.563c1.298 1.768 3.286 2.779 5.456 2.779h.014a6.62 6.62 0 0 0 3.012-.711.465.465 0 0 1 .525.08c.743.692 2.57.63 3.783.471-1.52-1.943-1.193-3.684-1.176-3.766a.479.479 0 0 1 .032-.1c.406-.903.61-1.868.608-2.868a6.873 6.873 0 0 0-2.16-5.025l.64-.687a7.916 7.916 0 0 1 2.454 5.71 7.854 7.854 0 0 1-.666 3.202c-.038.282-.16 1.85 1.51 3.526a.475.475 0 0 1-.232.795c-.38.081-3.585.718-5.17-.366a7.537 7.537 0 0 1-3.158.68h-.016z"/><path d="M6.13 15.525c.07 0 .142.016.207.049a7.02 7.02 0 0 0 3.179.751c3.953 0 7.168-3.262 7.168-7.271 0-4.01-3.215-7.272-7.168-7.272-3.953 0-7.17 3.262-7.17 7.272 0 1.056.218 2.073.648 3.024a.494.494 0 0 1 .033.1c.017.085.367 1.923-1.248 3.972.438.058 1.01.113 1.597.113 1.166 0 2.008-.211 2.436-.612a.465.465 0 0 1 .318-.126m3.386 1.742a7.937 7.937 0 0 1-3.324-.72c-.627.437-1.572.658-2.816.658-1.34 0-2.558-.256-2.61-.266a.473.473 0 0 1-.234-.794c1.761-1.776 1.629-3.434 1.587-3.734a8.233 8.233 0 0 1-.706-3.357C1.413 4.525 5.048.84 9.516.84c4.467 0 8.102 3.685 8.102 8.214 0 4.528-3.635 8.213-8.102 8.213"/></g></svg>
